symbols/web/more_time/materialsymbolsoutlined/more_time_wght200grad200_40px.svg

<svg xmlns="http://www.w3.org/2000/svg" height="40" width="40"><path d="M18.208 34.167q-2.916 0-5.5-1.125-2.583-1.125-4.5-3.063-1.916-1.937-3.041-4.5-1.125-2.562-1.125-5.521 0-2.958 1.125-5.541 1.125-2.584 3.041-4.521 1.917-1.938 4.5-3.063 2.584-1.125 5.5-1.125.959 0 1.917.125.958.125 1.875.375v2.25q-.875-.25-1.854-.416-.979-.167-1.938-.167-4.958 0-8.479 3.542-3.521 3.541-3.521 8.541 0 4.959 3.521 8.521 3.521 3.563 8.479 3.563 5 0 8.542-3.563 3.542-3.562 3.542-8.521 0-.5-.021-1.083t-.146-1.167h2.083q.084.5.167 1.104.083.605.083 1.146 0 2.917-1.125 5.521T28.271 30q-1.938 1.917-4.521 3.042-2.583 1.125-5.542 1.125ZM30.25 14.625V9.542h-5.167V7.375h5.167V2.25h2.125v5.125H37.5v2.167h-5.125v5.083Zm-6.917 12.083-6.25-6.25V11.5h2.167v8.083l5.583 5.625Z"/></svg>

<svg xmlns="http://www.w3.org/2000/svg" height="40" width="40"><path d="M18.208 34.167Q15.292 34.167 12.708 33.042Q10.125 31.917 8.208 29.979Q6.292 28.042 5.167 25.479Q4.042 22.917 4.042 19.958Q4.042 17 5.167 14.417Q6.292 11.833 8.208 9.896Q10.125 7.958 12.708 6.833Q15.292 5.708 18.208 5.708Q19.167 5.708 20.125 5.833Q21.083 5.958 22 6.208V8.458Q21.125 8.208 20.146 8.042Q19.167 7.875 18.208 7.875Q13.25 7.875 9.729 11.417Q6.208 14.958 6.208 19.958Q6.208 24.917 9.729 28.479Q13.25 32.042 18.208 32.042Q23.208 32.042 26.75 28.479Q30.292 24.917 30.292 19.958Q30.292 19.458 30.271 18.875Q30.25 18.292 30.125 17.708H32.208Q32.292 18.208 32.375 18.812Q32.458 19.417 32.458 19.958Q32.458 22.875 31.333 25.479Q30.208 28.083 28.271 30Q26.333 31.917 23.75 33.042Q21.167 34.167 18.208 34.167ZM30.25 14.625V9.542H25.083V7.375H30.25V2.25H32.375V7.375H37.5V9.542H32.375V14.625ZM23.333 26.708 17.083 20.458V11.5H19.25V19.583L24.833 25.208Z"/></svg>
